images/everywhere.svg

<svg height="81" viewBox="0 0 122 81" width="122" xmlns="http://www.w3.org/2000/svg"><g fill="none" fill-rule="evenodd" stroke="#2470c8" stroke-width="2"><g fill-rule="nonzero"><path d="m36.8182831 59.4630047-3.2-2.9240445c-.1456-.1332529-.3328-.2067717-.5264-.2067717h-15.5588c-1.3956-3.1571326-4.4716-5.2403054-7.82280001-5.2403054-4.7524 0-8.6184 4.03727-8.6184 8.9997911 0 4.9629389 3.866 9.0002089 8.618 9.0002089 3.35120001 0 6.42720001-2.0831728 7.82280001-5.2407231h2.1452c.1204 0 .2392-.0275696.3472-.0827087l1.314-1.1608341 1.3136 1.1608341c.22.110696.4752.110696.6944 0l1.314-1.1608341 1.3148 1.1608341c.2188.110696.4752.110696.6936 0l1.314-1.1608341 1.314 1.1608341c.2196.110696.4752.110696.6944 0l1.314-1.1608341 1.314 1.1608341c.1112.0551391.2292.0827087.3492.0827087h.1228c.1936 0 .3808-.0735189.5264-.2067717l3.2-2.9240445c.174-.1587339.2736-.3876448.2736-.6286696s-.0996-.4699357-.2736-.6286695zm-30.31218645 1.6288784c-1.10290909 0-2-.8974546-2-2 0-1.1029091.89709091-2 2-2 1.1029091 0 2 .8970909 2 2 0 1.1025454-.8970909 2-2 2z" fill="#b9d9ff" transform="matrix(-.70710678 .70710678 .70710678 .70710678 -9.899495 4.100505)"/><path d="m74.8182831 59.4630047-3.2-2.9240445c-.1456-.1332529-.3328-.2067717-.5264-.2067717h-15.5588c-1.3956-3.1571326-4.4716-5.2403054-7.8228-5.2403054-4.7524 0-8.6184 4.03727-8.6184 8.9997911 0 4.9629389 3.866 9.0002089 8.618 9.0002089 3.3512 0 6.4272-2.0831728 7.8228-5.2407231h2.1452c.1204 0 .2392-.0275696.3472-.0827087l1.314-1.1608341 1.3136 1.1608341c.22.110696.4752.110696.6944 0l1.314-1.1608341 1.3148 1.1608341c.2188.110696.4752.110696.6936 0l1.314-1.1608341 1.314 1.1608341c.2196.110696.4752.110696.6944 0l1.314-1.1608341 1.314 1.1608341c.1112.0551391.2292.0827087.3492.0827087h.1228c.1936 0 .3808-.0735189.5264-.2067717l3.2-2.9240445c.174-.1587339.2736-.3876448.2736-.6286696s-.0996-.4699357-.2736-.6286695zm-30.3121864 1.6288784c-1.1029091 0-2-.8974546-2-2 0-1.1029091.8970909-2 2-2 1.102909 0 2 .8970909 2 2 0 1.1025454-.897091 2-2 2z" fill="#b9d9ff" transform="matrix(-.70710678 .70710678 .70710678 .70710678 54.970563 -22.769553)"/><path d="m74.0238341 19.0916744-3.0199109-2.7594859h-16.1221393l-.2633244-.5956937c-1.2428616-2.8116071-3.9707391-4.6446117-6.9081764-4.6446117-4.190131 0-7.6184 3.5800321-7.6184 7.9997911 0 4.420061 3.4281602 8.0002089 7.618 8.0002089 2.9375071 0 5.6653223-1.8330673 6.9081566-4.6449847l.2633093-.5957384h2.6716602l1.7861747-1.5779699 1.6607471 1.4676095 1.6609506-1.4673424 1.6617056 1.4671162 1.6608959-1.4672942 1.6612 1.4675628 1.6612-1.4675628 1.7413139 1.5383383zm-3.0804655-2.8148185-.0002213-.0002023c.0000737.0000675.0001474.0001349.0002213.0002023zm-9.8488029 5.9915609-.0946298.1070831-.0952717-.1078423.0945865-.1879836zm-.095315-.1887428.1029053-.2045167c-.0629787-.0316886-.1417985-.0316886-.2058534.0006591zm3.4172721.1896938-.0939452.1064056-.094126-.1065453.0939142-.1856294zm-.094157-.1857691.104954-.2074505c-.0651391-.0329554-.144254-.0329554-.2099314.0003331zm3.416951.1847212-.0946337.1071202-.0949267-.1074517.0946102-.1876888zm-.0949502-.1880203.1032424-.2048134c-.0636254-.0320723-.1423429-.0320723-.2065064.0003302zm3.2995735-.1743296c-.0000722.0000658-.0001443.0001317-.0002164.0001976zm3.2002726-2.7042983c.0000384.0000351.0000769.0000702.0001154.0001053zm-29.638116 1.8902114c-1.6550965 0-3-1.3450724-3-3 0-1.6551938 1.3448061-3 3-3 1.6551938 0 3 1.3448062 3 3 0 1.6549276-1.3449036 3-3 3z" fill="#2470c8" transform="matrix(-.70710678 .70710678 .70710678 .70710678 83.961941 -34.778175)"/><path d="m116.818283 59.4630047-3.2-2.9240445c-.1456-.1332529-.3328-.2067717-.5264-.2067717h-15.5587999c-1.3956-3.1571326-4.4716-5.2403054-7.8228-5.2403054-4.7524 0-8.6184 4.03727-8.6184 8.9997911 0 4.9629389 3.866 9.0002089 8.618 9.0002089 3.3512 0 6.4272-2.0831728 7.8228-5.2407231h2.1452c.1204 0 .2392-.0275696.3471999-.0827087l1.314-1.1608341 1.3136 1.1608341c.22.110696.4752.110696.6944 0l1.314-1.1608341 1.3148 1.1608341c.2188.110696.4752.110696.6936 0l1.314-1.1608341 1.314 1.1608341c.2196.110696.4752.110696.6944 0l1.314-1.1608341 1.314 1.1608341c.1112.0551391.2292.0827087.3492.0827087h.1228c.1936 0 .3808-.0735189.5264-.2067717l3.2-2.9240445c.174-.1587339.2736-.3876448.2736-.6286696s-.0996-.4699357-.2736-.6286695zm-30.3121863 1.6288784c-1.1029091 0-2-.8974546-2-2 0-1.1029091.8970909-2 2-2 1.102909 0 2 .8970909 2 2 0 1.1025454-.897091 2-2 2z" fill="#b9d9ff" transform="matrix(-.70710678 .70710678 .70710678 .70710678 126.669047 -52.468037)"/></g><path d="m61.8046875 27c0 4.3994141.7509766 9.2167969-4.2607422 9.2167969-5.0117187 0-20.1210937 0-25.1884765 0-5.0673829 0-7.4013672.8486328-7.4013672 5.2832031"/><path d="m98.8505859 27c0 4.3994141.7509766 9.2167969-4.2607421 9.2167969-5.0117188 0-20.1210938 0-25.1884766 0s-7.4013672.8486328-7.4013672 5.2832031" transform="matrix(-1 0 0 1 160.890514 0)"/></g></svg>

<?xml version="1.0" encoding="UTF-8" standalone="no"?>
<svg width="122px" height="81px" viewBox="0 0 122 81" version="1.1" xmlns="http://www.w3.org/2000/svg" xmlns:xlink="http://www.w3.org/1999/xlink">
    <!-- Generator: Sketch 50.2 (55047) - http://www.bohemiancoding.com/sketch -->
    <title>everywhere</title>
    <desc>Created with Sketch.</desc>
    <defs></defs>
    <g id="everywhere" stroke="none" stroke-width="1" fill="none" fill-rule="evenodd">
        <path d="M36.8182831,59.4630047 L33.6182831,56.5389602 C33.4726831,56.4057073 33.2854831,56.3321885 33.0918831,56.3321885 L17.5330831,56.3321885 C16.1374831,53.1750559 13.0614831,51.0918831 9.71028309,51.0918831 C4.95788309,51.0918831 1.09188309,55.1291531 1.09188309,60.0916742 C1.09188309,65.0546131 4.95788309,69.0918831 9.70988309,69.0918831 C13.0610831,69.0918831 16.1370831,67.0087103 17.5326831,63.85116 L19.6778831,63.85116 C19.7982831,63.85116 19.9170831,63.8235904 20.0250831,63.7684513 L21.3390831,62.6076172 L22.6526831,63.7684513 C22.8726831,63.8791473 23.1278831,63.8791473 23.3470831,63.7684513 L24.6610831,62.6076172 L25.9758831,63.7684513 C26.1946831,63.8791473 26.4510831,63.8791473 26.6694831,63.7684513 L27.9834831,62.6076172 L29.2974831,63.7684513 C29.5170831,63.8791473 29.7726831,63.8791473 29.9918831,63.7684513 L31.3058831,62.6076172 L32.6198831,63.7684513 C32.7310831,63.8235904 32.8490831,63.85116 32.9690831,63.85116 L33.0918831,63.85116 C33.2854831,63.85116 33.4726831,63.7776411 33.6182831,63.6443883 L36.8182831,60.7203438 C36.9922831,60.5616099 37.0918831,60.332699 37.0918831,60.0916742 C37.0918831,59.8506494 36.9922831,59.6217385 36.8182831,59.4630047 Z M6.50609665,61.0918831 C5.40318756,61.0918831 4.50609665,60.1944285 4.50609665,59.0918831 C4.50609665,57.988974 5.40318756,57.0918831 6.50609665,57.0918831 C7.60900575,57.0918831 8.50609665,57.988974 8.50609665,59.0918831 C8.50609665,60.1944285 7.60900575,61.0918831 6.50609665,61.0918831 Z" id="Shape" stroke="#2470C8" stroke-width="2" fill="#B9D9FF" fill-rule="nonzero" transform="translate(19.091883, 60.091883) scale(-1, 1) rotate(45.000000) translate(-19.091883, -60.091883) "></path>
        <path d="M74.8182831,59.4630047 L71.6182831,56.5389602 C71.4726831,56.4057073 71.2854831,56.3321885 71.0918831,56.3321885 L55.5330831,56.3321885 C54.1374831,53.1750559 51.0614831,51.0918831 47.7102831,51.0918831 C42.9578831,51.0918831 39.0918831,55.1291531 39.0918831,60.0916742 C39.0918831,65.0546131 42.9578831,69.0918831 47.7098831,69.0918831 C51.0610831,69.0918831 54.1370831,67.0087103 55.5326831,63.85116 L57.6778831,63.85116 C57.7982831,63.85116 57.9170831,63.8235904 58.0250831,63.7684513 L59.3390831,62.6076172 L60.6526831,63.7684513 C60.8726831,63.8791473 61.1278831,63.8791473 61.3470831,63.7684513 L62.6610831,62.6076172 L63.9758831,63.7684513 C64.1946831,63.8791473 64.4510831,63.8791473 64.6694831,63.7684513 L65.9834831,62.6076172 L67.2974831,63.7684513 C67.5170831,63.8791473 67.7726831,63.8791473 67.9918831,63.7684513 L69.3058831,62.6076172 L70.6198831,63.7684513 C70.7310831,63.8235904 70.8490831,63.85116 70.9690831,63.85116 L71.0918831,63.85116 C71.2854831,63.85116 71.4726831,63.7776411 71.6182831,63.6443883 L74.8182831,60.7203438 C74.9922831,60.5616099 75.0918831,60.332699 75.0918831,60.0916742 C75.0918831,59.8506494 74.9922831,59.6217385 74.8182831,59.4630047 Z M44.5060967,61.0918831 C43.4031876,61.0918831 42.5060967,60.1944285 42.5060967,59.0918831 C42.5060967,57.988974 43.4031876,57.0918831 44.5060967,57.0918831 C45.6090057,57.0918831 46.5060967,57.988974 46.5060967,59.0918831 C46.5060967,60.1944285 45.6090057,61.0918831 44.5060967,61.0918831 Z" id="Shape" stroke="#2470C8" stroke-width="2" fill="#B9D9FF" fill-rule="nonzero" transform="translate(57.091883, 60.091883) scale(-1, 1) rotate(45.000000) translate(-57.091883, -60.091883) "></path>
        <path d="M74.0238341,19.0916744 L71.0039232,16.3321885 L54.8817839,16.3321885 L54.6184595,15.7364948 C53.3755979,12.9248877 50.6477204,11.0918831 47.7102831,11.0918831 C43.5201521,11.0918831 40.0918831,14.6719152 40.0918831,19.0916742 C40.0918831,23.5117352 43.5200433,27.0918831 47.7098831,27.0918831 C50.6473902,27.0918831 53.3752054,25.2588158 54.6180397,22.4468984 L54.881349,21.85116 L57.5530092,21.85116 L59.3391839,20.2731901 L60.999931,21.7407996 L62.6608816,20.2734572 L64.3225872,21.7405734 L65.9834831,20.2732792 L67.6446831,21.740842 L69.3058831,20.2732792 L71.047197,21.8116175 L74.0238341,19.0916744 Z M70.9433686,16.2768559 L70.9431473,16.2766536 C70.943221,16.2767211 70.9432947,16.2767885 70.9433686,16.2768559 Z M61.0945657,22.2684168 L60.9999359,22.3754999 L60.9046642,22.2676576 L60.9992507,22.079674 L61.0945657,22.2684168 Z M60.9992507,22.079674 L61.102156,21.8751573 C61.0391773,21.8434687 60.9603575,21.8434687 60.8963026,21.8758164 L60.9992507,22.079674 Z M64.4165228,22.2693678 L64.3225776,22.3757734 L64.2284516,22.2692281 L64.3223658,22.0835987 L64.4165228,22.2693678 Z M64.3223658,22.0835987 L64.4273198,21.8761482 C64.3621807,21.8431928 64.2830658,21.8431928 64.2173884,21.8764813 L64.3223658,22.0835987 Z M67.7393168,22.2683199 L67.6446831,22.3754401 L67.5497564,22.2679884 L67.6443666,22.0802996 L67.7393168,22.2683199 Z M67.6443666,22.0802996 L67.747609,21.8754862 C67.6839836,21.8434139 67.6052661,21.8434139 67.5411026,21.8758164 L67.6443666,22.0802996 Z M70.9439401,21.90597 C70.9438679,21.9060358 70.9437958,21.9061017 70.9437237,21.9061676 L70.9439401,21.90597 Z M74.1442127,19.2016717 C74.1442511,19.2017068 74.1442896,19.2017419 74.1443281,19.201777 L74.1442127,19.2016717 Z M44.5060967,21.0918831 C42.8510002,21.0918831 41.5060967,19.7468107 41.5060967,18.0918831 C41.5060967,16.4366893 42.8509028,15.0918831 44.5060967,15.0918831 C46.1612905,15.0918831 47.5060967,16.4366893 47.5060967,18.0918831 C47.5060967,19.7468107 46.1611931,21.0918831 44.5060967,21.0918831 Z" id="Shape" stroke="#2470C8" stroke-width="2" fill="#2470C8" fill-rule="nonzero" transform="translate(57.091883, 19.091883) scale(-1, 1) rotate(45.000000) translate(-57.091883, -19.091883) "></path>
        <path d="M116.818283,59.4630047 L113.618283,56.5389602 C113.472683,56.4057073 113.285483,56.3321885 113.091883,56.3321885 L97.5330831,56.3321885 C96.1374831,53.1750559 93.0614831,51.0918831 89.7102831,51.0918831 C84.9578831,51.0918831 81.0918831,55.1291531 81.0918831,60.0916742 C81.0918831,65.0546131 84.9578831,69.0918831 89.7098831,69.0918831 C93.0610831,69.0918831 96.1370831,67.0087103 97.5326831,63.85116 L99.6778831,63.85116 C99.7982831,63.85116 99.9170831,63.8235904 100.025083,63.7684513 L101.339083,62.6076172 L102.652683,63.7684513 C102.872683,63.8791473 103.127883,63.8791473 103.347083,63.7684513 L104.661083,62.6076172 L105.975883,63.7684513 C106.194683,63.8791473 106.451083,63.8791473 106.669483,63.7684513 L107.983483,62.6076172 L109.297483,63.7684513 C109.517083,63.8791473 109.772683,63.8791473 109.991883,63.7684513 L111.305883,62.6076172 L112.619883,63.7684513 C112.731083,63.8235904 112.849083,63.85116 112.969083,63.85116 L113.091883,63.85116 C113.285483,63.85116 113.472683,63.7776411 113.618283,63.6443883 L116.818283,60.7203438 C116.992283,60.5616099 117.091883,60.332699 117.091883,60.0916742 C117.091883,59.8506494 116.992283,59.6217385 116.818283,59.4630047 Z M86.5060967,61.0918831 C85.4031876,61.0918831 84.5060967,60.1944285 84.5060967,59.0918831 C84.5060967,57.988974 85.4031876,57.0918831 86.5060967,57.0918831 C87.6090057,57.0918831 88.5060967,57.988974 88.5060967,59.0918831 C88.5060967,60.1944285 87.6090057,61.0918831 86.5060967,61.0918831 Z" id="Shape" stroke="#2470C8" stroke-width="2" fill="#B9D9FF" fill-rule="nonzero" transform="translate(99.091883, 60.091883) scale(-1, 1) rotate(45.000000) translate(-99.091883, -60.091883) "></path>
        <path d="M61.8046875,27 C61.8046875,31.3994141 62.5556641,36.2167969 57.5439453,36.2167969 C52.5322266,36.2167969 37.4228516,36.2167969 32.3554688,36.2167969 C27.2880859,36.2167969 24.9541016,37.0654297 24.9541016,41.5" id="Path-4" stroke="#2470C8" stroke-width="2"></path>
        <path d="M98.8505859,27 C98.8505859,31.3994141 99.6015625,36.2167969 94.5898438,36.2167969 C89.578125,36.2167969 74.46875,36.2167969 69.4013672,36.2167969 C64.3339844,36.2167969 62,37.0654297 62,41.5" id="Path-4" stroke="#2470C8" stroke-width="2" transform="translate(80.445257, 34.250000) scale(-1, 1) translate(-80.445257, -34.250000) "></path>
    </g>
</svg>
